icons/folder-person.svg

<svg xmlns="http://www.w3.org/2000/svg" width="24" height="24" viewBox="0 0 24 24">
  <path d="M11,4 L13,6 L20,6 C21.1045695,6 22,6.8954305 22,8 L22,18 C22,19.1045695 21.1045695,20 20,20 L4,20 C2.8954305,20 2,19.1045695 2,18 L2,6 C2,4.8954305 2.8954305,4 4,4 L11,4 Z M13,14 L11,14 L10.8151403,14.0049586 C9.41840278,14.0804956 8.5,15.0076133 8.5,16 C8.5,16.5 8.5,17 9.5,17 L9.5,17 L14.5,17 L14.6575789,16.9954561 C15.5,16.9444444 15.5,16.4722222 15.5,16 C15.5,14.9644661 14.5,14 13,14 L13,14 Z M12,9 C10.8954305,9 10,9.8954305 10,11 C10,12.1045695 10.8954305,13 12,13 C13.1045695,13 14,12.1045695 14,11 C14,9.8954305 13.1045695,9 12,9 Z"/>
</svg>

<svg xmlns="http://www.w3.org/2000/svg" viewBox="0 0 24 24">
  <path d="m11 4 2 2h7a2 2 0 0 1 2 2v10a2 2 0 0 1-2 2H4a2 2 0 0 1-2-2V6c0-1.1.9-2 2-2h7zm2 10h-2.18c-1.4.08-2.32 1-2.32 2 0 .5 0 1 1 1h5.16c.84-.06.84-.53.84-1 0-1.04-1-2-2.5-2zm-1-5a2 2 0 1 0 0 4 2 2 0 0 0 0-4z"/>
</svg>
